!!!COM: Gaspar van Weerbeke
!!!CDT: ~1450-~1517
!!!OTL: Verbum caro factum est
!!!AGN: Motet
!!!SCT: Gas0418
!!!SCA: Gas0418
!!!voices: 4
**kern	**text	**kern	**text	**kern	**text	**kern	**text
*part4	*part4	*part3	*part3	*part2	*part2	*part1	*part1
*staff4	*staff4	*staff3	*staff3	*staff2	*staff2	*staff1	*staff1
*I"Bassus	*	*I"Tenor	*	*I"Altus	*	*I"Superius	*
*I'B	*	*I'T	*	*I'A	*	*I'S	*
*clefF4	*	*clefGv2	*	*clefGv2	*	*clefG2	*
*k[]	*	*k[]	*	*k[]	*	*k[]	*
*M2/2	*	*M2/2	*	*M2/2	*	*M2/2	*
*omet(C|)	*	*omet(C|)	*	*omet(C|)	*	*omet(C|)	*
=1	=1	=1	=1	=1	=1	=1	=1
1GG	Ver-	1G	Ver-	1d	Ver-	1g	Ver-
=2	=2	=2	=2	=2	=2	=2	=2
1GG;	-bum	1G;	-bum	1d;	-bum	1g;	-bum
=3	=3	=3	=3	=3	=3	=3	=3
[1F	ca-	[1c	ca-	[1f	ca-	[1a	ca-
=4	=4	=4	=4	=4	=4	=4	=4
2F]	.	2c]	.	2f]	.	2a]	.
2F	-ro	2c	-ro	2f	-ro	2a	-ro
=5	=5	=5	=5	=5	=5	=5	=5
[1A	fac-	[1c	fac-	[1e	fac-	[1cc	fac-
=6	=6	=6	=6	=6	=6	=6	=6
2A]	.	2c]	.	2e]	.	2cc]	.
2A	-tum	2c	-tum	2f	-tum	2cc	-tum
=7	=7	=7	=7	=7	=7	=7	=7
1Gl;	est,	1dl;	est,	1gl;	est,	1bl;	est,
!!LO:LB:g=original
=8	=8	=8	=8	=8	=8	=8	=8
1A	et	1c	et	1e	et	1cc	et
=9	=9	=9	=9	=9	=9	=9	=9
2A	ha-	2c	ha-	2e	ha-	2cc	ha-
2A	-bi-	2c	-bi-	2e	-bi-	2cc	-bi-
=10	=10	=10	=10	=10	=10	=10	=10
1F	-ta-	1c	-ta-	2f	-ta-	1a	-ta-
.	.	.	.	4.c	.	.	.
.	.	.	.	8d	.	.	.
=11	=11	=11	=11	=11	=11	=11	=11
2E	-vit	1c	-vit	2e	-vit	2g	-vit
[2F	in	.	.	[2A	in	[2a	in
=12	=12	=12	=12	=12	=12	=12	=12
4F]	.	1c	in	2A]	.	4a]	.
4E	.	.	.	.	.	4g	.
*lig	*	*	*	*	*	*	*
2C	no-	.	.	2c	no-	2e	.
=13	=13	=13	=13	=13	=13	=13	=13
*	*	*lig	*	*	*	*	*
2G	.	2B	no-	4d	.	2d	no-
*Xlig	*	*	*	*	*	*	*
.	.	.	.	4B	.	.	.
2E	.	2G	.	2c	.	[2g	.
*	*	*Xlig	*	*	*	*	*
=14	=14	=14	=14	=14	=14	=14	=14
1D	.	1A	.	1d	.	2g]	.
.	.	.	.	.	.	2f#i	.
=15	=15	=15	=15	=15	=15	=15	=15
1GGl;	-bis;	1Gl;	-bis;	1dl;	-bis;	1gl;	-bis;
!!LO:LB:g=original
=16	=16	=16	=16	=16	=16	=16	=16
1G	et	1B	et	1d	et	1g	et
=17	=17	=17	=17	=17	=17	=17	=17
1F	vi-	1c	vi-	1f	vi-	1a	vi-
=18	=18	=18	=18	=18	=18	=18	=18
2F	-di-	2c	-di-	2f	-di-	2a	-di-
2F	-mus	2c	-mus	2f	-mus	2a	-mus
=19	=19	=19	=19	=19	=19	=19	=19
1F	glo-	2.A	glo-	2r	.	1cc	glo-
.	.	.	.	2f	glo-	.	.
.	.	4B	.	.	.	.	.
=20	=20	=20	=20	=20	=20	=20	=20
2A	-ri-	2c	-ri-	4.e	-ri-	2cc	-ri-
.	.	.	.	8f	.	.	.
[2G	-am	[2d	-am	[2g	-am	[2b	-am
=21	=21	=21	=21	=21	=21	=21	=21
2G]	.	2d]	.	2g]	.	4b]	.
.	.	.	.	.	.	4a	.
2A	e-	2c	e-	[2e	e-	[2a	e-
!!LO:LB:g=original
=22	=22	=22	=22	=22	=22	=22	=22
1E	.	1B	.	1e]	.	2a]	.
.	.	.	.	.	.	2g#i	.
=23	=23	=23	=23	=23	=23	=23	=23
1F	-ius,	1A	-ius,	1c	-ius,	1a	-ius,
=24	=24	=24	=24	=24	=24	=24	=24
1C	glo-	1G	glo-	2.e	glo-	2r	.
.	.	.	.	.	.	2e	glo-
.	.	.	.	[4g	.	.	.
=25	=25	=25	=25	=25	=25	=25	=25
2C	-ri-	2G	-ri-	8g]L	.	2e	-ri-
.	.	.	.	8f	.	.	.
.	.	.	.	8e	.	.	.
.	.	.	.	8dJ	.	.	.
2E	-am	2G	-am	4.c	-ri-	2e	-am
.	.	.	.	8B	.	.	.
=26	=26	=26	=26	=26	=26	=26	=26
1D	qua-	2.A	qua-	1d	-am	1f	qua-
.	.	4B	.	.	.	.	.
=27	=27	=27	=27	=27	=27	=27	=27
1C	-si	1c	-si	2G	qua-	1e	-si
.	.	.	.	2g	-si	.	.
!!LO:PB:g=original
=28	=28	=28	=28	=28	=28	=28	=28
2C	u-	2c	u-	2e	u-	2g	u-
2C	-ni-	2c	-ni-	2e	-ni-	2g	-ni-
=29	=29	=29	=29	=29	=29	=29	=29
2F	-ge-	2c	-ge-	2f	-ge-	2a	-ge-
2F	-ni-	2c	-ni-	2f	-ni-	2a	-ni-
=30	=30	=30	=30	=30	=30	=30	=30
1C	-ti	1c	-ti	1e	-ti	1g	-ti
=31	=31	=31	=31	=31	=31	=31	=31
*lig	*	*	*	*	*	*	*
2C	a	2c	a	2r	.	2e	a
2F	.	[2A	pa-	[2c	a	[2f	pa-
*Xlig	*	*	*	*	*	*	*
=32	=32	=32	=32	=32	=32	=32	=32
*lig	*	*	*	*	*	*	*
2C	pa-	4A]	.	2c]	.	4f]	.
.	.	4G	.	.	.	4e	.
*	*	*lig	*	*	*	*	*
2D	.	2F	.	[2A	pa-	2d	.
*Xlig	*	*	*	*	*	*	*
=33	=33	=33	=33	=33	=33	=33	=33
*lig	*	*	*	*	*	*	*
2AA	.	2E	.	2A]	.	2c	.
*	*	*Xlig	*	*lig	*	*	*
2GG	.	[2G	.	2B	.	[2e	.
*Xlig	*	*	*	*	*	*	*
!!LO:LB:g=original
=34	=34	=34	=34	=34	=34	=34	=34
*lig	*	*	*	*	*	*	*
2C	.	4G]	.	2c	.	4e]	.
*	*	*	*	*Xlig	*	*	*
.	.	4A	.	.	.	4d	.
2D	.	2F	.	[2A	-tre,	[2d	.
*Xlig	*	*	*	*	*	*	*
=35	=35	=35	=35	=35	=35	=35	=35
1AA	-tre,	1E	.	1A]	.	2d]	.
.	.	.	.	.	.	2c#i	.
=36	=36	=36	=36	=36	=36	=36	=36
2r	.	2D	-tre,	2.a	ple-	1d	-tre,
2D	ple-	2A	ple-	.	.	.	.
.	.	.	.	4f	.	.	.
=37	=37	=37	=37	=37	=37	=37	=37
2G	-num	2B	-num	2g	-num	1r	.
2D	gra-	[2d	gra-	2f	gra-	.	.
=38	=38	=38	=38	=38	=38	=38	=38
1A	-ti-	2d]	.	1e	.	2r	.
.	.	2c#i	-ti-	.	.	2a	ple-
=39	=39	=39	=39	=39	=39	=39	=39
*	*	*	*	*lig	*	*	*
1D	-e	2d	-e	1d	.	2b	-num
.	.	2B	.	.	.	[2dd	gra-
!!LO:LB:g=original
=40	=40	=40	=40	=40	=40	=40	=40
1r	.	1A	.	1e	.	2dd]	.
*	*	*	*	*Xlig	*	*	*
.	.	.	.	.	.	2cc#i	-ti-
=41	=41	=41	=41	=41	=41	=41	=41
2.D	et	2r	.	4d	.	2.dd	-e
.	.	.	.	4e	.	.	.
.	.	[2d	gra-	4f	.	.	.
4E	.	.	.	4g	.	8ccL	.
.	.	.	.	.	.	8bJ	.
=42	=42	=42	=42	=42	=42	=42	=42
4F	.	2d]	.	4a	.	1a	.
4G	.	.	.	4e	.	.	.
2A	.	2c	.	2f	.	.	.
=43	=43	=43	=43	=43	=43	=43	=43
*	*	*lig	*	*	*	*	*
1G	.	2B	-ti-	4g	.	2r	.
.	.	.	.	4d	.	.	.
.	.	2G	.	[2g	.	[2dd	et
*	*	*Xlig	*	*	*	*	*
=44	=44	=44	=44	=44	=44	=44	=44
1r	.	1A	.	2g]	.	2dd]	.
.	.	.	.	2f#i	-ti-	2cc	.
=45	=45	=45	=45	=45	=45	=45	=45
*	*	*	*	*	*	*lig	*
2r	.	1G	-e	1g	-e	2b	ve-
2G	ve-	.	.	.	.	2g	.
*	*	*	*	*	*	*Xlig	*
!!LO:LB:g=original
=46	=46	=46	=46	=46	=46	=46	=46
1F	-ri-	2r	.	2.c	et	1a	-ri-
.	.	2c	et	.	.	.	.
.	.	.	.	4d	.	.	.
=47	=47	=47	=47	=47	=47	=47	=47
2G	-ta-	2B	ve-	2e	ve-	2g	-ta-
[2F	.	[2c	-ri-	2f	-ri-	[2a	.
=48	=48	=48	=48	=48	=48	=48	=48
2F]	.	4c]	.	4c	-ta-	4a]	.
.	.	4A	-ta-	4d	.	4f	.
2E	.	4B	.	2e	.	2g	.
.	.	4c	.	.	.	.	.
=49	=49	=49	=49	=49	=49	=49	=49
[1Dl;	-tis.	2.d	.	2A	.	[1f#li;	-tis.
.	.	.	.	4B	.	.	.
.	.	8cL	.	4A	.	.	.
.	.	8BJ	.	.	.	.	.
=50	=50	=50	=50	=50	=50	=50	=50
1D]	.	1Al;	-tis.	1dl;	-tis.	1f#]	.
=51||	=51||	=51||	=51||	=51||	=51||	=51||	=51||
!!LO:TX:t=[whole] = [whole-dot]
!!LO:TX:a:t=[0/3]
*M3/2	*	*M3/2	*	*M3/2	*	*M3/2	*
*omet(O/3)	*	*omet(O/3)	*	*omet(O/3)	*	*omet(O/3)	*
1.r	.	1G	A-	1g	A-	1.r	.
.	.	2G	-ve	2e	-ve	.	.
!!LO:PB:g=original
=52	=52	=52	=52	=52	=52	=52	=52
1.r	.	1A	ve-	1f	ve-	1.r	.
.	.	2G	-rum	2g	-rum	.	.
=53	=53	=53	=53	=53	=53	=53	=53
1.r	.	1c	cor-	1e	cor-	1g	A-
.	.	2B	-pus	2d	-pus	2g	-ve
=54	=54	=54	=54	=54	=54	=54	=54
*	*	*	*	*lig	*	*	*
1.r	.	2A	na-	2e	na-	1a	ve-
.	.	2.c	.	2c	.	.	.
*	*	*	*	*Xlig	*	*	*
.	.	.	.	2e	.	2g	-rum
.	.	4B	.	.	.	.	.
=55	=55	=55	=55	=55	=55	=55	=55
1F	Cor-	4A	.	2.f	.	1cc	cor-
.	.	4G	.	.	.	.	.
.	.	2A	.	.	.	.	.
.	.	.	.	4e	.	.	.
*	*	*lig	*	*	*	*	*
2G	-pus	2G	.	2d	.	2b	-pus
=56	=56	=56	=56	=56	=56	=56	=56
*	*	*	*	*	*	*lig	*
*	*	*	*	*col	*	*	*
*col	*	*	*	*	*	*	*
2A	na-	2c	.	2c	.	2a	na-
*	*	*Xlig	*	*	*	*	*
2D	.	2.d	.	2f	.	2.b-i	.
*	*	*	*	*	*	*Xlig	*
[2G	.	.	.	[2d	.	.	.
.	.	4c	.	.	.	4a	.
=57	=57	=57	=57	=57	=57	=57	=57
2G]	.	2B	.	2d]	.	1g	.
1D	.	1A	.	1d	-tum	.	.
*Xcol	*	*	*	*Xcol	*	*	*
.	.	.	.	.	.	2f#i	.
!!LO:LB:g=original
=58	=58	=58	=58	=58	=58	=58	=58
1.GG	-tum	1.G	-tum	2.B	.	1g	-tum
.	.	.	.	4c	.	.	.
.	.	.	.	2d	.	2r	.
=59	=59	=59	=59	=59	=59	=59	=59
1G	ex	1d	ex	1g	ex	1b	ex
2G	Ma-	2d	Ma-	2g	Ma-	2b	Ma-
=60	=60	=60	=60	=60	=60	=60	=60
*	*	*	*	*col	*	*	*
1G	-ri-	1d	-ri-	1g	-ri-	1b	-ri-
2A	-a	2c	-a	[2e	-a	2a	-a
=61	=61	=61	=61	=61	=61	=61	=61
2E	vir-	2.B	vir-	2e]	.	4g	vir-
.	.	.	.	.	.	4a	.
1G	.	.	.	2.d	vir-	4b	.
.	.	4G	.	.	.	4cc	.
.	.	2B	.	.	.	2dd	.
.	.	.	.	4e	.	.	.
*	*	*	*	*Xcol	*	*	*
=62	=62	=62	=62	=62	=62	=62	=62
*lig	*	*lig	*	*lig	*	*	*
2A	-gi-	2c	-gi-	2f	-gi-	1cc	-gi-
1G	.	1d	.	1g	.	.	.
*Xlig	*	*Xlig	*	*Xlig	*	*	*
.	.	.	.	.	.	2b	.
=63	=63	=63	=63	=63	=63	=63	=63
1.C	-ne,	1c	-ne,	1.e	-ne,	1.cc	-ne,
.	.	2r	.	.	.	.	.
!!LO:LB:g=original
=64	=64	=64	=64	=64	=64	=64	=64
1F	ve-	1A	ve-	2.c	ve-	1.r	.
.	.	.	.	4d	.	.	.
2E	-re	2c	-re	2e	-re	.	.
=65	=65	=65	=65	=65	=65	=65	=65
1D	pas-	1d	pas-	1f	pas-	1a	ve-
2A	-sum,	2c	-sum,	2e	-sum,	2cc	-re
=66	=66	=66	=66	=66	=66	=66	=66
2.G	im-	1B	im-	2.g	im-	1dd	pas-
4D	.	.	.	4f	.	.	.
2F	-mo-	2A	-mo-	2a	-mo-	2cc	-sum,
=67	=67	=67	=67	=67	=67	=67	=67
1G	-la-	1d	-la-	1g	-la-	1b	im-
2r	.	2c	.	2e	.	2a	-mo-
=68	=68	=68	=68	=68	=68	=68	=68
*lig	*	*col	*	*lig	*	*lig	*
2F	.	2A	.	2f	.	2cc	-la
2G	.	2G	.	2d	.	2.b	.
*Xlig	*	*	*	*Xlig	*	*Xlig	*
2F	.	[2A	.	2f	.	.	.
.	.	.	.	.	.	4a	.
=69	=69	=69	=69	=69	=69	=69	=69
*lig	*	*	*	*	*	*	*
2A	.	2A]	.	1.e	.	1a	.
1E	.	1B	.	.	.	.	.
*Xlig	*	*Xcol	*	*	*	*	*
.	.	.	.	.	.	2g#i	.
=70	=70	=70	=70	=70	=70	=70	=70
1.F	-tum	1.A	-tum	1.c	-tum	1a	tum
.	.	.	.	.	.	2r	.
!!LO:LB:g=original
=71	=71	=71	=71	=71	=71	=71	=71
*col	*	*col	*	*col	*	*col	*
1F	in	1c	in	1f	in	1a	in
[2F	cru-	[2c	cru-	2c	cru-	[2a	cru-
=72	=72	=72	=72	=72	=72	=72	=72
2F]	.	2c]	.	2A	.	2a]	.
2G	.	2B	.	2B	.	1g	.
2E	.	2c	.	2G	.	.	.
*Xcol	*	*Xcol	*	*Xcol	*	*Xcol	*
=73	=73	=73	=73	=73	=73	=73	=73
1D	-ce	1d	-ce	1A	-ce	1f	-ce
2G	pro	2B	pro	2r	.	2g	pro
=74	=74	=74	=74	=74	=74	=74	=74
*	*	*lig	*	*	*	*	*
2.F	ho-	2c	ho-	1r	.	2.a	ho-
.	.	2.A	.	.	.	.	.
*	*	*Xlig	*	*	*	*	*
4E	.	.	.	.	.	4g	.
2D	-mi-	.	.	2d	pro	2f	-mi
.	.	4B	-mi-	.	.	.	.
=75	=75	=75	=75	=75	=75	=75	=75
[1.Cl;	-ne,	[1.cl;	-ne,	1G	ho-	[1.el;	ne.
.	.	.	.	2G	-mi-	.	.
!!LO:PB:g=original
=76	=76	=76	=76	=76	=76	=76	=76
1.C_	.	1.c_	.	2.c	-ne,	1.e_	.
.	.	.	.	4B	.	.	.
.	.	.	.	2A	.	.	.
=77	=77	=77	=77	=77	=77	=77	=77
1.C]	.	1.c]	.	1.G;	.	1.e]	.
=78||	=78||	=78||	=78||	=78||	=78||	=78||	=78||
1.r	.	1G	Cu-	1.r	.	1.r	.
.	.	2A	-ius	.	.	.	.
=79	=79	=79	=79	=79	=79	=79	=79
1C	Cu-	1c	la-	1.r	.	1.r	.
2E	-ius	2B	-tus	.	.	.	.
=80	=80	=80	=80	=80	=80	=80	=80
2.F	la-	2.A	per-	1.r	.	1.r	.
4G	.	4G	.	.	.	.	.
2A	-tus	2F	-fo-	.	.	.	.
=81	=81	=81	=81	=81	=81	=81	=81
1G	per-	2.E	-ra-	1.r	.	1.r	.
.	.	4F	.	.	.	.	.
2E	-fo-	4G	.	.	.	.	.
.	.	4A	.	.	.	.	.
!!LO:LB:g=original
=82	=82	=82	=82	=82	=82	=82	=82
2D	-ra-	2B	.	1.r	.	1.r	.
2.E	.	2c	.	.	.	.	.
.	.	4B	.	.	.	.	.
4D	.	4A	.	.	.	.	.
=83	=83	=83	=83	=83	=83	=83	=83
*lig	*	*	*	*	*	*	*
2C	.	1A	.	1.r	.	1.r	.
1BB	.	.	.	.	.	.	.
*Xlig	*	*	*	*	*	*	*
.	.	2G#i	.	.	.	.	.
=84	=84	=84	=84	=84	=84	=84	=84
1AA	-tum	1A	-tum	1.r	.	1.r	.
2C	sa-	2r	.	.	.	.	.
=85	=85	=85	=85	=85	=85	=85	=85
2BB	.	2G	sa-	1.r	.	1.r	.
2D	-cro	2F	.	.	.	.	.
2C	.	2A	-cro	.	.	.	.
=86	=86	=86	=86	=86	=86	=86	=86
2E	flu-	2G	.	1.r	.	1.r	.
2D	.	2B	flu-	.	.	.	.
2F	-xit	2A	.	.	.	.	.
=87	=87	=87	=87	=87	=87	=87	=87
2E	.	2c	-xit	1.r	.	1.r	.
2G	san-	2B	.	.	.	.	.
2F	.	[2d	san-	.	.	.	.
!!LO:LB:g=original
=88	=88	=88	=88	=88	=88	=88	=88
2.D	.	4d]	.	1.r	.	1.r	.
.	.	4c	.	.	.	.	.
.	.	4B	.	.	.	.	.
4C	.	4A	.	.	.	.	.
4BB	.	4G	.	.	.	.	.
4AA	.	4F	.	.	.	.	.
=89	=89	=89	=89	=89	=89	=89	=89
2BB	.	2G	.	1.r	.	1.r	.
2.C	.	2.A	.	.	.	.	.
4D	.	4G	.	.	.	.	.
=90	=90	=90	=90	=90	=90	=90	=90
*lig	*	*	*	*	*	*	*
*col	*	*	*	*	*	*	*
2BB	-gui-	1G	.	1.r	.	1.r	.
1AA	.	.	.	.	.	.	.
*Xcol	*	*	*	*	*	*	*
*Xlig	*	*	*	*	*	*	*
.	.	2F#i	-gui-	.	.	.	.
=91	=91	=91	=91	=91	=91	=91	=91
1GG	-ne.	1G	-ne.	1B	E-	1.r	.
2r	.	2r	.	2d	-sto	.	.
=92	=92	=92	=92	=92	=92	=92	=92
1.r	.	1E	E-	2.e	no-	1.r	.
.	.	.	.	4d	.	.	.
.	.	2G	-sto	2B	-bis	.	.
=93	=93	=93	=93	=93	=93	=93	=93
*	*	*	*	*lig	*	*	*
1.r	.	1A	no-	2A	pre-	1e	E-
.	.	.	.	2c	.	.	.
*	*	*	*	*Xlig	*	*	*
.	.	2G	-bis	2B	-gu-	2g	-sto
!!LO:LB:g=original
=94	=94	=94	=94	=94	=94	=94	=94
1AA	E-	1c	pre-	2A	-sta-	1a	no-
.	.	.	.	1e	.	.	.
2E	-sto	2B	-gu-	.	.	2g	-bis
=95	=95	=95	=95	=95	=95	=95	=95
1F	no-	1A	-sta-	2c	.	1cc	pre-
.	.	.	.	2A	-tum	.	.
2G	-bis	2d	.	2r	.	2b	-gu-
=96	=96	=96	=96	=96	=96	=96	=96
*	*	*lig	*	*	*	*	*
2A	pre-	2c	.	1e	mor-	1a	-sta-
1E	-gu-	1B	.	.	.	.	.
*	*	*Xlig	*	*	*	*	*
.	.	.	.	2e	-tis	2g#i	.
=97	=97	=97	=97	=97	=97	=97	=97
2AA	-sta-	1.A	-tum	2c	in	1.a	-tum
4D	.	.	.	2f	.	.	.
4C	.	.	.	.	.	.	.
4BB	.	.	.	2d	ex-	.	.
4AA	.	.	.	.	.	.	.
=98	=98	=98	=98	=98	=98	=98	=98
2GG	-tum	1d	mor-	1g	-a-	1.r	.
2G	mor-	.	.	.	.	.	.
2A	-tis	2c	-tis	2f	.	.	.
=99	=99	=99	=99	=99	=99	=99	=99
1G	in	2B	in	2g	.	1.r	.
.	.	1A	ex-	1c	.	.	.
2F	ex-	.	.	.	.	.	.
!!LO:PB:g=original
=100	=100	=100	=100	=100	=100	=100	=100
4G	-a-	1G	-a-	2B	.	1dd	mor-
4A	.	.	.	.	.	.	.
4B	.	.	.	2A	.	.	.
4c	.	.	.	.	.	.	.
2A	.	2A	.	2r	.	2cc	-tis
=101	=101	=101	=101	=101	=101	=101	=101
2G	.	2B	.	4.d	.	2b	in
.	.	.	.	8e	.	.	.
2F	.	2c	.	1f	.	2.a	ex-
2D	.	2d	.	.	.	.	.
.	.	.	.	.	.	4g	.
=102	=102	=102	=102	=102	=102	=102	=102
2G	.	2B	.	1.d	-mi-	1g	-a-
1D	-mi-	1A	-mi-	.	.	.	.
.	.	.	.	.	.	2f#i	-mi-
=103	=103	=103	=103	=103	=103	=103	=103
!!LO:TX:t=[whole-dot] = [whole]
*M2/2	*	*M2/2	*	*M2/2	*	*M2/2	*
*omet(C|)	*	*omet(C|)	*	*omet(C|)	*	*omet(C|)	*
1GGl;	-ne.	1Gl;	-ne.	1Bl;	-ne.	1gl;	-ne.
=104	=104	=104	=104	=104	=104	=104	=104
2r	.	2r	.	2r	.	2r	.
2AA	O	2E	O	2A	O	2cc	O
=105	=105	=105	=105	=105	=105	=105	=105
1AA	cle-	1E	cle-	1c	cle-	1cc	cle-
=106	=106	=106	=106	=106	=106	=106	=106
1GGl;	-mens!	1Gl;	-mens!	1dl;	-mens!	1bl;	-mens!
!!LO:LB:g=original
=107	=107	=107	=107	=107	=107	=107	=107
2r	.	2r	.	2r	.	2r	.
2G	O	2G	O	2d	O	2b	O
=108	=108	=108	=108	=108	=108	=108	=108
1G	pi-	1B	pi-	1d	pi-	1b	pi-
=109	=109	=109	=109	=109	=109	=109	=109
1Fl;	-e!	1cl;	-e!	1fl;	-e!	1al;	-e!
=110	=110	=110	=110	=110	=110	=110	=110
2r	.	2r	.	2r	.	2r	.
2D	O	2d	O	2f	O	2a	O
=111	=111	=111	=111	=111	=111	=111	=111
2D	Je-	2d	Je-	2f	Je-	2a	Je-
2F	-su	2A	-su	2c	-su	2a	-su
=112	=112	=112	=112	=112	=112	=112	=112
1E	dul-	1B	dul-	1e	dul-	1g	dul-
=113	=113	=113	=113	=113	=113	=113	=113
1Dl;	-cis	1dl;	-cis	1Al;	-cis	1f#lj;	-cis
!!LO:LB:g=original
=114	=114	=114	=114	=114	=114	=114	=114
2.GG	fi-	1r	.	2G	fi-	1r	.
.	.	.	.	4E	.	.	.
[4AA	.	.	.	4C	.	.	.
=115	=115	=115	=115	=115	=115	=115	=115
4AA]	.	1r	.	4F	.	1r	.
4C	.	.	.	4E	.	.	.
2BB	-li	.	.	2D	-li	.	.
=116	=116	=116	=116	=116	=116	=116	=116
2.C	vir-	2.G	fi-	2r	.	1r	.
*	*	*	*	*lig	*	*	*
.	.	.	.	2c	vir-	.	.
4C	-gi-	[4A	.	.	.	.	.
=117	=117	=117	=117	=117	=117	=117	=117
*lig	*	*	*	*	*	*	*
2C	-nis,	4A]	.	2e	.	1r	.
*	*	*	*	*Xlig	*	*	*
.	.	4c	.	.	.	.	.
2D	.	2B	-li	2d	.	.	.
*Xlig	*	*	*	*	*	*	*
=118	=118	=118	=118	=118	=118	=118	=118
*	*edit	*	*	*	*	*	*
2C	vir-	2.c	vir-	4.e	-gi-	2.g	fi-
.	.	.	.	8f	.	.	.
4E	.	.	.	4g	.	.	.
[4F	-gi-	4c	-gi-	[4f	.	[4a	.
=119	=119	=119	=119	=119	=119	=119	=119
*	*	*lig	*	*	*	*	*
8F]L	.	2c	-nis	8f]L	.	4a]	.
8GJ	.	.	.	8eJ	.	.	.
4A	.	.	.	4f	.	4cc	.
2G	-nis	2d	.	2g	-nis	2b	-li
*	*	*Xlig	*	*	*	*	*
!!LO:LB:g=original
=120	=120	=120	=120	=120	=120	=120	=120
*	*Xedit	*	*	*	*	*	*
1C	Ma-	2c	Ma-	4r	.	2.cc	vir-
.	.	.	.	2g	Ma-	.	.
.	.	2G	.	.	.	.	.
.	.	.	.	4e	.	4cc	-gi-
=121	=121	=121	=121	=121	=121	=121	=121
2BB	.	2B	.	2d	.	2dd	-nis
2C	.	2G	.	2e	.	4.cc	Ma-
.	.	.	.	.	.	8b	.
=122	=122	=122	=122	=122	=122	=122	=122
2.F	.	4A	.	2f	.	8aL	.
.	.	.	.	.	.	8gJ	.
.	.	2c	.	.	.	2a	.
.	.	.	.	2r	.	.	.
4D	.	[4d	.	.	.	[4b	.
=123	=123	=123	=123	=123	=123	=123	=123
2G	.	4d]	.	2.d	-ri-	4b]	.
.	.	8cL	.	.	.	8aL	.
.	.	8BJ	.	.	.	8gJ	.
4r	.	4A	-ri-	.	.	4f	-ri-
[4F	-ri-	[4c	.	[4f	.	[4a	.
=124	=124	=124	=124	=124	=124	=124	=124
4F]	.	4c]	.	8f]L	.	4a]	.
.	.	.	.	8eJ	.	.	.
4G	.	4B	.	2.d	.	2g	.
2D	.	2A	.	.	.	.	.
.	.	.	.	.	.	4f#i	.
=125	=125	=125	=125	=125	=125	=125	=125
1GGl	-e!	1Gl	-e!	1dl	-e!	1gl	-e!
==	==	==	==	==	==	==	==
*-	*-	*-	*-	*-	*-	*-	*-
!!!system-decoration: [*]
!!!RDF**kern: j = editorial accidental, optional, paren up
!!!RDF**kern: i = editorial accidental
!!!RDF**kern: l = terminal breve
!!!PTL: Gaspar van Weerbeke: Collected Works. IV. Motets
!!!ISBN: 978-1-59551-500-1 / 1-59551-500-3
!!!PPR: American Institute of Musicology
!!!PC#: Corpus Mensurabilis Musicae 106/IV
!!!PDT: 2010
!!!PED: Pavanello, Agnese
!!!YEC: Copyright 2008, Pavanello, Agnese
!!!YEM: CC-BY-NC 4.0 (https://creativecommons.org/licenses/by-nc/4.0/legalcode)
!!!EED: Mair-Gruber, Roland
!!!EEV: 2021/09/17
!!!muse2ps: C^@{COM}^i2I150v90,90,90,120c122z18l2700t130
